ufans-frontend-package/public/assets/images/new-home/icon/video-post.svg

<svg width="96" height="96" viewBox="0 0 96 96" fill="none" xmlns="http://www.w3.org/2000/svg">
<g clip-path="url(#clip0_1617_125)">
<path d="M86.2666 0H9.73344C4.3565 0 0 4.3565 0 9.73344V86.2666C0 91.6435 4.3565 96 9.73344 96H86.2666C91.6435 96 96 91.6435 96 86.2666V9.75307C96.0196 4.37612 91.6435 0 86.2666 0ZM58.9894 9.38021H67.3295V17.7204H58.9894V9.38021ZM43.8397 9.38021H52.1799V17.7204H43.8397V9.38021V9.38021ZM28.6705 9.38021H37.0106V17.7204H28.6705V9.38021ZM21.8414 86.659H13.5012V78.3189H21.8414V86.659ZM21.8414 17.7204H13.5012V9.38021H21.8414V17.7204ZM37.0106 86.659H28.6705V78.3189H37.0106V86.659ZM52.1603 86.659H43.8201V78.3189H52.1603V86.659ZM67.3295 86.659H58.9894V78.3189H67.3295V86.659ZM69.1742 50.3745L37.1676 68.8602C35.3622 69.9002 33.0859 68.6051 33.0859 66.5053V29.5339C33.0859 27.4342 35.3622 26.139 37.1676 27.1791L69.1742 45.6648C70.9992 46.7048 70.9992 49.3344 69.1742 50.3745ZM82.4988 86.659H74.1586V78.3189H82.4988V86.659ZM82.4988 17.7204H74.1586V9.38021H82.4988V17.7204Z" fill="#6661E7"/>
</g>
<defs>
<clipPath id="clip0_1617_125">
<rect width="96" height="96" fill="white"/>
</clipPath>
</defs>
</svg>

<svg xmlns="http://www.w3.org/2000/svg" xmlns:xlink="http://www.w3.org/1999/xlink" width="96" height="96" viewBox="0 0 96 96">
  <defs>
    <clipPath id="clip-path">
      <rect id="Rectangle_1" data-name="Rectangle 1" width="96" height="96" fill="#e44499"/>
    </clipPath>
  </defs>
  <g id="video-post" clip-path="url(#clip-path)">
    <path id="Path_1" data-name="Path 1" d="M86.267,0H9.733A9.732,9.732,0,0,0,0,9.733V86.267A9.732,9.732,0,0,0,9.733,96H86.267A9.732,9.732,0,0,0,96,86.267V9.753A9.736,9.736,0,0,0,86.267,0ZM58.989,9.38h8.34v8.34h-8.34Zm-15.15,0h8.34v8.34H43.84V9.38Zm-15.169,0h8.34v8.34H28.67ZM21.841,86.659H13.5v-8.34h8.34Zm0-68.939H13.5V9.38h8.34ZM37.011,86.659H28.67v-8.34h8.34Zm15.15,0H43.82v-8.34h8.34Zm15.169,0h-8.34v-8.34h8.34Zm1.845-36.284L37.168,68.86a2.723,2.723,0,0,1-4.082-2.355V29.534a2.723,2.723,0,0,1,4.082-2.355L69.174,45.665A2.71,2.71,0,0,1,69.174,50.375ZM82.5,86.659h-8.34v-8.34H82.5Zm0-68.939h-8.34V9.38H82.5Z" fill="#e44499"/>
  </g>
</svg>
